Adwaita++/actions/16/fitwidth.svg

<svg height="16" viewBox="0 0 16 16" width="16" xmlns="http://www.w3.org/2000/svg">
  <path d="m16 8-2-1.5-2-1.5v2h-8v-2l-2 1.5-2 1.5 2 1.5 2 1.5v-2h8v2l2-1.5z" fill="#474747"/>
</svg>

<svg xmlns="http://www.w3.org/2000/svg" width="16" height="16" version="1.1" viewBox="0 0 16 16">
 <defs>
  <style id="current-color-scheme" type="text/css">
   .ColorScheme-Text { color:#474747; } .ColorScheme-Highlight { color:#4285f4; }
  </style>
 </defs>
 <path style="fill:currentColor" class="ColorScheme-Text" d="M 16,8 14,6.5 12,5 V 7 H 4 V 5 L 2,6.5 0,8 2,9.5 4,11 V 9 h 8 v 2 l 2,-1.5 z"/>
</svg>
